; HEADER_BLOCK_START
; generated by Creality_Print V6.0.5.1840 on 2025-04-13 at 19:21:06
; total layer number: 179
; filament_density: 1.24
; filament_diameter: 1.75
; max_z_height: 25.60
; HEADER_BLOCK_END

; MINX = 128.99
; MINY = 137.79
; MINZ = 0.00
; MAXX = 171.01
; MAXY = 159.79
; MAXZ = 25.65

; THUMBNAIL_BLOCK_START

;
; THUMBNAIL_BLOCK_END

; THUMBNAIL_BLOCK_START

;
; THUMBNAIL_BLOCK_END

; external perimeters extrusion width = 0.42mm
; perimeters extrusion width = 0.45mm
; infill extrusion width = 0.45mm
; solid infill extrusion width = 0.42mm
; top infill extrusion width = 0.42mm
; support material extrusion width = 0.42mm
; first layer extrusion width = 0.50mm

; EXECUTABLE_BLOCK_START
EXCLUDE_OBJECT_DEFINE NAME=vertMotorHolder.stl_id_0_copy_0 CENTER=150.001,148.787 POLYGON=[[128.988,157.787],[130.868,137.787],[144.868,137.787],[171.013,157.787],[171.013,159.787],[128.988,159.787],[128.988,157.787]]
M73 P0 R15
M106 S0
M106 P2 S0
;TYPE:Custom
START_PRINT EXTRUDER_TEMP=220 BED_TEMP=50
T0
M204 S2000
M104 S220
G1 Z3 F600
M83
G92 E0
G1 Z1 F600
G90
G21
M83 ; use relative distances for extrusion
G1 E-.8 F2400
M106 S0
;LAYER_CHANGE
;Z:0.2
;HEIGHT:0.2
;BEFORE_LAYER_CHANGE
;0.2
G92 E0

;AFTER_LAYER_CHANGE
;0.2
;_SET_FAN_SPEED_CHANGING_LAYER
SET_VELOCITY_LIMIT ACCEL=1000 ACCEL_TO_DECEL=1000
SET_VELOCITY_LIMIT SQUARE_CORNER_VELOCITY=20
; printing object vertMotorHolder.stl id:0 copy 0
EXCLUDE_OBJECT_START NAME=vertMotorHolder.stl_id_0_copy_0
G1 Z.4 F30000
G1 X124.447 Y137.969
G1 Z.2
G1 E.8 F2400
;TYPE:Support
;WIDTH:0.5
G1 F3600
G3 X128.027 Y136.678 I3.283 J3.494 E.1413
G3 X132.147 Y139.614 I-.335 J4.828 E.19219
G1 X130.967 Y139.641 E.04262
G1 X130.836 Y139.774 E.00672
G1 X130.806 Y156.378 E.59951
G3 X124.296 Y149.577 I-3.133 J-3.517 E.52211
G3 X123.156 Y146.605 I6.914 J-4.357 E.11569
G3 X123.675 Y144.021 I6.032 J-.132 E.09594
G3 X124.418 Y137.997 I4.055 J-2.557 E.2373
G1 X124.73 Y138.35 F30000
G1 F3600
G1 X125.18 Y137.956 E.02159
G3 X127.999 Y137.135 I2.551 J3.51 E.10815
G3 X131.436 Y139.173 I-.341 J4.492 E.14948
G2 X130.38 Y139.587 I-.316 J.748 E.04533
G1 X130.35 Y156.168 E.59868
G3 X124.747 Y149.772 I-2.681 J-3.303 E.47102
G2 X124.266 Y148.589 I-1.5 J-.08 E.04765
G3 X124.139 Y144.241 I3.61 J-2.281 E.16478
G3 X123.4 Y141.733 I86.569 J-26.888 E.09438
G3 X124.568 Y138.495 I4.331 J-.268 E.12781
G1 X124.7 Y138.376 E.00641
G1 X125.043 Y138.699 F30000
G1 F3600
G1 X125.259 Y138.479 E.01113
G3 X127.97 Y137.591 I2.481 J2.992 E.10546
G3 X130.529 Y138.782 I-.29 J3.967 E.10416
G1 X129.923 Y139.4 E.03124
G1 X129.893 Y155.943 E.59731
G3 X125.198 Y149.968 I-2.218 J-3.089 E.41954
G1 X125.227 Y149.063 E.03267
G3 X124.6 Y144.344 I2.712 J-2.762 E.18514
G2 X124.121 Y142.889 I-3.031 J.191 E.0559
G3 X124.595 Y139.186 I3.619 J-1.418 E.14058
G1 X125.016 Y138.728 E.02246
G1 X125.346 Y139.038 F30000
G1 F3600
G1 X125.55 Y138.83 E.01051
G3 X127.941 Y138.047 I2.188 J2.639 E.09302
G3 X129.88 Y138.791 I-.249 J3.548 E.07607
G1 X129.466 Y139.213 E.02133
G1 X129.436 Y155.699 E.59524
G3 X125.649 Y150.163 I-1.764 J-2.857 E.36946
G1 X125.689 Y148.897 E.04574
G3 X125.06 Y144.447 I2.313 J-2.596 E.17643
G2 X124.546 Y142.721 I-3.162 J.002 E.06594
G3 X124.965 Y139.455 I3.192 J-1.251 E.124
G1 X125.319 Y139.068 E.01895
G1 X125.643 Y139.459 F30000
G1 F3600
G1 X126.467 Y138.784 E.03845
G3 X127.913 Y138.504 I1.27 J2.685 E.05374
G3 X129.172 Y138.86 I-.311 J3.507 E.04754
G1 X129.01 Y139.026 E.0084
G1 X128.98 Y155.438 E.59258
G3 X126.101 Y150.358 I-1.295 J-2.622 E.31967
G1 X126.152 Y148.73 E.05881
G3 X125.521 Y144.55 I1.94 J-2.431 E.16785
G2 X124.971 Y142.552 I-3.36 J-.15 E.07603
G3 X125.334 Y139.723 I2.765 J-1.083 E.10742
G1 X125.613 Y139.485 E.01323
G1 X125.906 Y139.752 F30000
G1 F3600
G3 X127.884 Y138.96 I1.863 J1.787 E.07928
G3 X128.552 Y139.093 I-.319 J3.361 E.02465
G1 X128.523 Y155.142 E.57948
G3 X126.552 Y150.553 I-.76 J-2.392 E.26685
G1 X126.614 Y148.564 E.07187
G3 X125.981 Y144.653 I1.594 J-2.265 E.1594
G1 X125.941 Y143.362 E.04661
G3 X125.879 Y139.781 I1.829 J-1.823 E.14292
G1 X126.182 Y140.125 F30000
G1 F3600
G1 X126.659 Y139.777 E.0213
G3 X127.855 Y139.417 I1.204 J1.829 E.04575
G1 X128.095 Y139.439 E.00868
G1 X128.067 Y154.804 E.55478
G3 X126.233 Y151.519 I-.389 J-1.938 E.17978
G1 X127.003 Y150.748 E.03932
G1 X127.077 Y148.397 E.08494
G3 X126.442 Y144.755 I1.337 J-2.109 E.15027
G1 X126.394 Y143.231 E.05509
G3 X126.191 Y140.192 I1.469 J-1.624 E.12159
G1 X126.188 Y140.165 E.00099
G1 X127.002 Y140.659 F30000
G1 F3600
G1 X127.179 Y140.369 E.01229
G1 X127.175 Y142.228 E.06714
G1 X126.906 Y142.301 E.01007
G3 X126.601 Y141.319 I.99 J-.846 E.03818
G1 X126.981 Y140.694 E.02643
G1 X126.696 Y140.326 F30000
G1 F3600
G1 X127.141 Y139.982 E.0203
G3 X127.637 Y139.851 I.923 J2.508 E.01855
G1 X127.632 Y142.541 E.09712
G1 X127.621 Y148.324 E.20878
G3 X126.454 Y145.752 I1.442 J-2.206 E.10761
G2 X126.847 Y143.099 I-3.022 J-1.804 E.09937
G3 X126.513 Y140.575 I1.273 J-1.453 E.10036
G1 X126.673 Y140.358 E.00972
G1 X126.91 Y152.125 F30000
G1 F3600
G1 X127.157 Y152.209 E.00944
G1 X127.155 Y153.521 E.04734
G1 X126.908 Y153.605 E.00943
G3 X126.885 Y152.152 I.79 J-.739 E.0575
G1 X126.502 Y151.958 F30000
G1 F3600
G1 X126.566 Y151.832 E.0051
G1 X127.617 Y150.781 E.05365
G1 X127.61 Y154.386 E.13017
G3 X126.185 Y152.583 I.068 J-1.519 E.09407
G1 X126.484 Y151.993 E.02388
G1 E-.8 F2400
;WIPE_START
G1 F3600
G1 X126.566 Y151.832
G1 X127.617 Y150.781
G1 X127.616 Y151.114
;WIPE_END
G1 X133.754 Y146.576 Z.6 F30000
G1 X136.234 Y144.743 Z.6
G1 Z.2
G1 E.8 F2400
G1 F3600
G3 X140.027 Y136.681 I3.492 J-3.28 E.41304
M73 P1 R15
G3 X144.138 Y139.598 I-.335 J4.828 E.19146
M73 P1 R15
G1 X142.574 Y139.598 E.05649
G1 X142.44 Y139.732 E.00684
G1 X142.44 Y145.411 E.20504
G3 X136.262 Y144.772 I-2.713 J-3.949 E.24398
G1 X136.572 Y144.426 F30000
G1 F3600
G3 X139.998 Y137.137 I3.16 J-2.964 E.37323
G3 X143.408 Y139.141 I-.337 J4.477 E.1479
G1 X142.384 Y139.141 E.03697
G1 X141.983 Y139.543 E.02051
G1 X141.983 Y145.163 E.20293
G3 X136.599 Y144.455 I-2.251 J-3.702 E.21189
G1 X136.949 Y144.127 F30000
G1 F3600
G1 X136.59 Y143.742 E.01898
G3 X139.969 Y137.593 I3.136 J-2.279 E.31662
G3 X142.314 Y138.566 I-.315 J4.072 E.09317
G1 X141.526 Y139.354 E.04024
G1 X141.526 Y144.897 E.20015
G3 X137.255 Y144.45 I-1.799 J-3.434 E.16429
G1 X136.976 Y144.156 E.01465
G1 X137.306 Y143.781 F30000
G1 F3600
G1 X136.959 Y143.474 E.01674
G3 X139.941 Y138.05 I2.77 J-2.009 E.27924
G3 X141.621 Y138.612 I-.291 J3.661 E.0646
G1 X141.069 Y139.164 E.02819
G1 X141.069 Y144.614 E.19677
G3 X138.078 Y144.462 I-1.339 J-3.149 E.11192
G1 X137.336 Y143.808 E.03571
G1 X137.658 Y143.486 F30000
G1 F3600
G1 X137.229 Y143.049 E.02213
G3 X139.912 Y138.506 I2.502 J-1.586 E.23498
G3 X140.874 Y138.713 I-.431 J4.347 E.03559
G1 X140.611 Y138.975 E.01338
G1 X140.611 Y144.291 E.19193
G3 X138.14 Y143.962 I-.881 J-2.828 E.0929
G1 X137.687 Y143.514 E.02303
G1 X138.007 Y143.248 F30000
G1 F3600
G1 X137.529 Y142.671 E.02706
G3 X139.883 Y138.963 I2.201 J-1.205 E.19319
G1 X140.154 Y138.988 E.00983
G1 X140.154 Y143.939 E.17876
G3 X138.127 Y143.397 I-.424 J-2.473 E.07818
G1 X138.033 Y143.28 E.00543
G1 X138.602 Y142.522 F30000
G1 F3600
G1 X138.436 Y142.401 E.00742
G3 X139.24 Y139.926 I1.326 J-.937 E.10901
G1 X139.24 Y143.002 E.11104
G1 X138.634 Y142.546 E.02739
G1 X138.343 Y142.946 F30000
G1 F3600
G1 X138.233 Y142.865 E.00491
G3 X139.697 Y139.41 I1.502 J-1.402 E.17082
G1 X139.697 Y143.518 E.14833
G3 X138.853 Y143.319 I.038 J-2.054 E.03156
G1 X138.375 Y142.97 E.02136
G1 E-.8 F2400
;WIPE_START
G1 F3600
G1 X138.233 Y142.865
G1 X137.821 Y142.218
G1 X137.677 Y141.464
G1 X137.731 Y141.18
;WIPE_END
G1 X144.971 Y143.598 Z.6 F30000
G1 X145.297 Y143.707 Z.6
G1 Z.2
G1 E.8 F2400
G1 F3600
G3 X148.209 Y142.921 I2.625 J3.937 E.11084
G3 X152.637 Y148.335 I-.376 J4.826 E.28221
G3 X151.806 Y151.804 I-5.484 J.52 E.13117
G3 X151.915 Y157.358 I-3.751 J2.852 E.21449
G1 X147.897 Y157.358 E.14507
G3 X145.297 Y154.732 I.007 J-2.607 E.14828
G1 X145.297 Y143.747 E.39663
G1 X145.754 Y143.96 F30000
G1 F3600
G3 X148.18 Y143.377 I2.203 J3.831 E.09133
G3 X152.183 Y148.392 I-.359 J4.392 E.25951
G3 X151.34 Y151.522 I-4.368 J.501 E.11985
G2 X152.013 Y153.089 I3.333 J-.503 E.06227
G3 X152.104 Y155.97 I-3.992 J1.567 E.10614
G3 X151.67 Y156.901 I-5.347 J-1.926 E.03712
G1 X147.927 Y156.901 E.13513
G3 X145.754 Y154.672 I.012 J-2.186 E.12509
G1 X145.754 Y144 E.38533
G1 X146.211 Y144.224 F30000
G1 F3600
G3 X148.151 Y143.834 I1.752 J3.689 E.07218
G3 X151.73 Y148.45 I-.343 J3.961 E.23684
G3 X150.878 Y151.388 I-3.968 J.442 E.11334
G2 X151.385 Y152.826 I2.019 J.098 E.05646
G3 X151.406 Y156.444 I-3.386 J1.829 E.13599
G1 X147.958 Y156.444 E.12449
G3 X146.211 Y154.612 I.017 J-1.764 E.10192
G1 X146.211 Y144.264 E.3736
G1 X146.668 Y144.524 F30000
G1 F3600
G3 X148.123 Y144.29 I1.256 J3.179 E.05361
G3 X151.276 Y148.507 I-.414 J3.597 E.21286
G3 X150.417 Y151.253 I-3.599 J.382 E.10686
G1 X150.449 Y152.293 E.03754
G3 X151.126 Y155.987 I-2.483 J2.364 E.1435
G3 X147.677 Y155.945 I-1.569 J-12.923 E.12491
G1 X146.926 Y155.511 E.03132
G1 X146.668 Y154.552 E.03588
G1 X146.668 Y144.564 E.36063
G1 X147.125 Y144.847 F30000
G1 F3600
G3 X148.094 Y144.747 I.801 J2.995 E.03532
G3 X150.778 Y148.282 I-.226 J2.958 E.18109
G3 X149.955 Y151.119 I-3.14 J.627 E.11084
G1 X149.997 Y152.455 E.04826
G3 X150.804 Y155.53 I-2.125 J2.2 E.12067
G3 X147.827 Y155.504 I-1.393 J-11.146 E.10779
G3 X147.125 Y154.491 I.156 J-.858 E.04941
G1 X147.125 Y144.887 E.34676
G1 X147.582 Y145.22 F30000
G1 F3600
G3 X148.065 Y145.203 I.339 J2.793 E.01747
G3 X150.322 Y148.326 I-.212 J2.529 E.15793
G3 X149.494 Y150.985 I-2.821 J.58 E.10498
G1 X149.545 Y152.618 E.05898
G3 X150.453 Y155.073 I-1.84 J2.076 E.0984
G3 X147.977 Y155.063 I-1.202 J-9.265 E.08964
G3 X147.582 Y154.431 I.119 J-.514 E.02989
G1 X147.582 Y145.26 E.33114
G1 X148.039 Y145.652 F30000
G1 F3600
G1 X148.282 Y145.69 E.00886
G3 X149.866 Y148.369 I-.47 J2.086 E.12582
G3 X149.032 Y150.851 I-2.521 J.535 E.09919
G1 X149.093 Y152.781 E.06971
G3 X150.029 Y154.616 I-1.754 J2.052 E.07631
G1 X148.105 Y154.616 E.06947
G1 X148.039 Y154.371 E.00915
G1 X148.039 Y145.692 E.31336
G1 X148.496 Y146.194 F30000
G1 F3600
G1 X148.801 Y146.401 E.0133
G3 X149.461 Y148.736 I-2.164 J1.872 E.09046
G3 X148.755 Y150.446 I-2.08 J.142 E.06923
G1 X148.496 Y150.367 E.00975
G1 X148.496 Y146.234 E.14921
G1 X148.744 Y153.077 F30000
G1 F3600
G1 X149.279 Y153.767 E.03156
G3 X149.518 Y154.158 I-2.991 J2.09 E.01655
G1 X148.496 Y154.158 E.03687
G1 X148.496 Y153.161 E.036
G1 X148.706 Y153.09 E.00799
G1 E-.8 F2400
;WIPE_START
G1 F3600
G1 X149.279 Y153.767
G1 X149.518 Y154.158
G1 X148.863 Y154.158
;WIPE_END
G1 X141.502 Y156.176 Z.6 F30000
G1 X132.671 Y158.596 Z.6
G1 Z.2
G1 E.8 F2400
;TYPE:Inner wall
;WIDTH:0.440426
G1 F3600
G1 X132.697 Y158.601 E.00082
;WIDTH:0.414381
G1 X143.137 Y158.601 E.30634
;WIDTH:0.45719
G1 X143.347 Y158.504 E.00756
;WIDTH:0.499999
G1 X143.557 Y158.408 E.00834
G1 X143.725 Y157.958 E.01734
G2 X143.711 Y155.722 I-82.835 J-.586 E.08073
;WIDTH:0.471258
G1 X143.697 Y155.261 E.01561
;WIDTH:0.44282
G1 X143.683 Y154.8 E.01457
;WIDTH:0.414381
G1 X143.683 Y140.841 E.40959
M73 P2 R15
G1 X144.054 Y140.841 E.0109
M73 P2 R15
G1 X144.054 Y154.853 E.41114
;WIDTH:0.450692
G1 X144.115 Y155.36 E.01644
;WIDTH:0.487002
G1 X144.176 Y155.866 E.0179
;WIDTH:0.499999
G1 X144.577 Y156.792 E.03643
G1 X145.212 Y157.578 E.03649
G1 X146.019 Y158.168 E.0361
G1 X146.952 Y158.515 E.03592
;WIDTH:0.472849
G1 X147.404 Y158.558 E.01544
;WIDTH:0.443615
G1 X147.857 Y158.601 E.01439
;WIDTH:0.414381
G1 X167.959 Y158.601 E.58984
G1 X167.959 Y158.972 E.0109
G1 X147.801 Y158.972 E.59147
;WIDTH:0.451619
G1 X147.245 Y158.954 E.01796
;WIDTH:0.488857
G1 X146.689 Y158.935 E.0196
;WIDTH:0.499999
G2 X143.795 Y158.929 I-1.858 J213.374 E.10451
G1 X143.417 Y158.951 E.01365
;WIDTH:0.45719
G1 X143.04 Y158.972 E.01237
;WIDTH:0.414381
G1 X132.697 Y158.972 E.30349
;WIDTH:0.440426
G1 X132.383 Y158.959 E.00986
;WIDTH:0.466471
G1 X132.069 Y158.946 E.01051
G2 X132.054 Y158.069 I-17.535 J-.139 E.02934
G1 X132.381 Y158.548 E.01938
G1 X132.539 Y158.574 E.00535
;WIDTH:0.440426
G1 X132.632 Y158.59 E.00295
G1 X132.468 Y157.958 F30000
;TYPE:Outer wall
;WIDTH:0.499999
G1 F3600
G1 X132.589 Y158.159 E.00848
G1 X132.697 Y158.187 E.00401
G1 X143.04 Y158.187 E.37344
G1 X143.212 Y158.108 E.00684
G1 X143.268 Y157.958 E.00578
G1 X143.268 Y140.427 E.63297
G1 X144.468 Y140.427 E.04333
G1 X144.468 Y154.816 E.51952
G1 X144.592 Y155.694 E.03201
G1 X144.939 Y156.513 E.03212
G1 X145.49 Y157.215 E.03224
G1 X146.194 Y157.746 E.03182
G1 X147.01 Y158.075 E.03178
G1 X147.857 Y158.187 E.03083
G1 X168.373 Y158.187 E.74075
G1 X168.373 Y159.387 E.04333
G1 X131.628 Y159.387 E1.32671
G1 X131.664 Y140.452 E.68366
G1 X132.468 Y140.429 E.02906
G1 X132.468 Y157.918 E.63145
G1 E-.8 F2400
;WIPE_START
G1 F3600
G1 X132.589 Y158.159
G1 X132.697 Y158.187
G1 X134.316 Y158.187
;WIPE_END
G1 X133.334 Y150.618 Z.6 F30000
G1 X132.066 Y140.843 Z.6
G1 Z.2
G1 E.8 F2400
;TYPE:Inner wall
;WIDTH:0.423428
G1 F3600
G1 X132.05 Y157.958 E.51442
;WIDTH:0.433238
G1 X132.054 Y158.069 E.00344
G1 E-.8 F2400
;WIPE_START
G1 F3600
G1 X132.05 Y157.958
G1 X132.051 Y156.07
;WIPE_END
G1 X139.664 Y156.617 Z.6 F30000
G1 X143.862 Y156.919 Z.6
G1 Z.2
G1 E.8 F2400
;TYPE:Bottom surface
;WIDTH:0.500142
G1 F3600
G1 X145.53 Y158.587 E.08518
G1 X144.883 Y158.587 E.02335
G1 X144.065 Y157.769 E.04178
G1 X144.064 Y158.066 E.01075
G1 X143.96 Y158.31 E.00957
G1 X144.442 Y158.792 E.02463
G1 E-.8 F2400
;WIPE_START
G1 F3600
G1 X143.96 Y158.31
G1 X144.064 Y158.066
G1 X144.065 Y157.769
G1 X144.599 Y158.303
;WIPE_END
G1 X145.951 Y158.551 Z.6 F30000
G1 Z.2
G1 E.8 F2400
;TYPE:Gap infill
;WIDTH:0.325131
G1 F3600
G1 X145.921 Y158.515 E.00103
;WIDTH:0.280097
G1 X145.892 Y158.479 E.00087
;WIDTH:0.251071
G1 X145.871 Y158.461 E.00045
;WIDTH:0.23091
G1 X145.78 Y158.391 E.0017
;WIDTH:0.199711
G1 X145.682 Y158.315 E.00154
;WIDTH:0.162525
G1 X145.406 Y158.071 E.00348
;WIDTH:0.14094
G1 X145.13 Y157.827 E.00285
G1 X144.828 Y157.525 F30000
;WIDTH:0.119291
G1 F3600
G1 X144.584 Y157.25 E.00222
;WIDTH:0.162926
G3 X144.334 Y156.967 I3.926 J-3.72 E.00358
;WIDTH:0.201558
G1 X144.26 Y156.871 E.00152
;WIDTH:0.240626
G3 X143.99 Y156.498 I4.878 J-3.822 E.00719
; stop printing object vertMotorHolder.stl id:0 copy 0
;TIME_ELAPSED:24.500555

M106 S255
;LAYER_CHANGE
;Z:0.4
;HEIGHT:0.2
;BEFORE_LAYER_CHANGE
;0.4
G92 E0

G1 E-.8 F2400
;WIPE_START
G1 F3600
G1 X144.26 Y156.871
;WIPE_END
EXCLUDE_OBJECT_END NAME=vertMotorHolder.stl_id_0_copy_0
;AFTER_LAYER_CHANGE
;0.4
;_SET_FAN_SPEED_CHANGING_LAYER
SET_VELOCITY_LIMIT ACCEL=10000 ACCEL_TO_DECEL=10000
M140 S50 ; set bed temperature
; printing object vertMotorHolder.stl id:0 copy 0
EXCLUDE_OBJECT_START NAME=vertMotorHolder.stl_id_0_copy_0
G17
G3 Z.6 I-.174 J-1.204 P1  F30000
G1 X133.099 Y158.486 Z.6
G1 Z.4
G1 E.8 F2400
SET_VELOCITY_LIMIT ACCEL=5000 ACCEL_TO_DECEL=5000
;TYPE:Inner wall
;WIDTH:0.644381
G1 F4318
G1 X142.89 Y158.486 E.46517
G1 X142.994 Y158.418 E.0059
;WIDTH:0.595786
G1 X143.097 Y158.35 E.00542
;WIDTH:0.54719
G1 X143.201 Y158.282 E.00494
;WIDTH:0.498595
G1 X143.305 Y158.214 E.00447
;WIDTH:0.449999
G1 X143.462 Y157.907 E.01108
G1 X143.47 Y157.808 E.00319
G1 X143.47 Y155.219 E.08326
;WIDTH:0.498649
G1 X143.495 Y155.113 E.00389
;WIDTH:0.547298
G1 X143.519 Y155.008 E.0043
;WIDTH:0.595947
G1 X143.543 Y154.903 E.00472
;WIDTH:0.644596
G1 X143.568 Y154.798 E.00513
G1 X143.568 Y140.232 E.69229
;WIDTH:0.644395
G1 X144.169 Y140.232 E.02858
G1 X144.169 Y140.533 E.01429
;WIDTH:0.644596
G1 X144.169 Y154.798 E.678
G1 X144.205 Y154.889 E.00465
;WIDTH:0.595947
G1 X144.24 Y154.98 E.00428
;WIDTH:0.547298
G1 X144.275 Y155.072 E.0039
;WIDTH:0.498649
G1 X144.31 Y155.163 E.00352
;WIDTH:0.449999
G1 X144.413 Y155.79 E.02044
G1 X144.787 Y156.644 E.02996
G1 X145.393 Y157.396 E.03106
G1 X146.141 Y157.943 E.02981
G1 X146.988 Y158.273 E.02922
G1 X147.501 Y158.344 E.01667
;WIDTH:0.498595
G1 X147.593 Y158.379 E.00353
;WIDTH:0.54719
G1 X147.684 Y158.415 E.0039
;WIDTH:0.595786
G1 X147.776 Y158.45 E.00428
;WIDTH:0.644381
G1 X147.867 Y158.486 E.00466
